picto/no-entry.svg

<svg class="color-immutable" width="24" height="24" viewBox="0 0 24 24" fill="none" xmlns="http://www.w3.org/2000/svg"><path d="M0 22.5V1.5C0 0.675 0.675 0 1.5 0H22.5C23.325 0 24 0.675 24 1.5V22.5C24 23.325 23.325 24 22.5 24H1.5C0.675 24 0 23.325 0 22.5Z" fill="#2D327D"/><path d="M9.612 18.811C9.612 20.125 10.677 21.19 11.991 21.19C13.305 21.19 14.37 20.125 14.37 18.811V16.432H9.612V18.811Z" fill="white"/><path d="M21.192 20.131L14.531 13.47L15.25 10.491C15.323 10.188 15.327 9.871 15.26 9.567L14.042 3.955C13.897 3.289 13.308 2.814 12.627 2.814H11.355C10.673 2.814 10.084 3.289 9.93998 3.955L9.06298 8.001L3.85098 2.789L2.78998 3.85L8.70498 9.765C8.67198 10.127 8.71398 10.494 8.93198 10.905C9.25598 11.516 9.95498 12.832 9.95498 12.832L12.982 14.043L20.131 21.192L21.192 20.131Z" fill="white"/><path d="M3.85098 2.789L2.78998 3.85L20.132 21.192L21.192 20.131L3.85098 2.789Z" fill="#EB0000"/></svg>

<svg class="color-immutable" width="24" height="24" viewBox="0 0 24 24" fill="none" xmlns="http://www.w3.org/2000/svg"><g clip-path="url(#a)"><path d="M0 22.5v-21C0 .675.675 0 1.5 0h21c.825 0 1.5.675 1.5 1.5v21c0 .825-.675 1.5-1.5 1.5h-21C.675 24 0 23.325 0 22.5Z" fill="#2D327D"/><path d="M9.612 18.811a2.379 2.379 0 1 0 4.758 0v-2.379H9.612v2.379Z" fill="#fff"/><path d="m21.192 20.131-6.661-6.661.719-2.979a2.06 2.06 0 0 0 .01-.924l-1.218-5.612a1.449 1.449 0 0 0-1.415-1.141h-1.272c-.682 0-1.271.475-1.415 1.141l-.877 4.046-5.212-5.212L2.79 3.85l5.915 5.915a1.94 1.94 0 0 0 .227 1.14l1.023 1.927 3.027 1.211 7.149 7.149 1.061-1.061Z" fill="#fff"/><path d="M3.851 2.789 2.79 3.85l17.342 17.342 1.06-1.061L3.851 2.789Z" fill="#EB0000"/></g><defs><clipPath id="a"><path fill="#fff" d="M0 0h24v24H0z"/></clipPath></defs></svg>
